symbolic/24x24/apps/fluid.svg

<svg xmlns="http://www.w3.org/2000/svg" width="24" height="24" version="1">
 <path style="opacity:0.2" d="m 10,2.5 c -1.108,0 -2,0.892 -2,2 l 0,7.25 -1.9785156,2.853516 -2.5722656,3.705078 A 3.3579064,2.7942702 0 0 0 6.3574219,22.5 l 5.1425781,0 5.142578,0 a 3.3579064,2.7942702 0 0 0 2.908203,-4.191406 L 16.978516,14.603516 15,11.75 15,4.5 c 0,-1.108 -0.892,-2 -2,-2 l -3,0 z"/>
 <path style="fill:#e4e4e4" d="m 10,2 3,0 c 1.108,0 2,0.892 2,2 l 0,7.7 c 0,1.108 -0.892,2 -2,2 l -3,0 c -1.108,0 -2,-0.892 -2,-2 L 8,4 C 8,2.892 8.892,2 10,2 Z"/>
 <path style="fill:#e4e4e4" d="M 11.658055,9.0030835 A 3.3579064,2.7942702 0 0 0 8.5925195,10.396843 L 6.02098,14.103032 3.4494401,17.80922 A 3.3579064,2.7942702 0 0 0 6.357522,22 L 11.5,22 16.642478,22 A 3.3579064,2.7942702 0 0 0 19.55056,17.809221 L 16.97902,14.103032 14.408081,10.396843 A 3.3579064,2.7942702 0 0 0 11.658055,9.0030835 Z"/>
 <path style="fill:#578aff" d="M 12,5 A 1,1 0 0 0 11,6 1,1 0 0 0 12,7 1,1 0 0 0 13,6 1,1 0 0 0 12,5 Z"/>
 <path style="fill:#578aff" d="M 10,8 A 1,1 0 0 0 9,9 1,1 0 0 0 10,10 1,1 0 0 0 11,9 1,1 0 0 0 10,8 Z"/>
 <path style="fill:#578aff" d="m 13,10 a 1,1 0 0 0 -1,1 1,1 0 0 0 1,1 1,1 0 0 0 1,-1 1,1 0 0 0 -1,-1 z"/>
 <path style="fill:#578aff" d="m 11,13 a 1,1 0 0 0 -1,1 1,1 0 0 0 1,1 1,1 0 0 0 1,-1 1,1 0 0 0 -1,-1 z"/>
 <path style="fill:#578aff" d="M 7.328125,16 6.2910155,17.420898 A 2.172763,1.7195509 0 0 0 8.1728515,20 L 11.5,20 l 3.327149,0 a 2.172763,1.7195509 0 0 0 1.881836,-2.579102 L 15.671875,16 7.328125,16 Z"/>
 <path style="opacity:0.2;fill:#ffffff" d="M 10 2 C 8.892 2 8 2.892 8 4 L 8 4.5 C 8 3.392 8.892 2.5 10 2.5 L 13 2.5 C 14.108 2.5 15 3.392 15 4.5 L 15 4 C 15 2.892 14.108 2 13 2 L 10 2 z M 8 11.25 L 6.0214844 14.103516 L 3.4492188 17.808594 A 3.3579064 2.7942702 0 0 0 3.015625 19.462891 A 3.3579064 2.7942702 0 0 1 3.4492188 18.308594 L 6.0214844 14.603516 L 8 11.75 L 8 11.25 z M 15 11.25 L 15 11.75 L 16.978516 14.603516 L 19.550781 18.308594 A 3.3579064 2.7942702 0 0 1 19.984375 19.460938 A 3.3579064 2.7942702 0 0 0 19.550781 17.808594 L 16.978516 14.103516 L 15 11.25 z"/>
</svg>

<svg xmlns="http://www.w3.org/2000/svg" width="24" height="24" version="1"><path style="opacity:.2" d="M10 2.5c-1.108 0-2 .892-2 2v7.25l-1.979 2.854-2.572 3.705A3.358 2.794 0 0 0 6.357 22.5h10.286a3.358 2.794 0 0 0 2.908-4.191l-2.572-3.705L15 11.75V4.5c0-1.108-.892-2-2-2h-3z"/><path style="fill:#e4e4e4" d="M10 2h3c1.108 0 2 .892 2 2v7.7c0 1.108-.892 2-2 2h-3c-1.108 0-2-.892-2-2V4c0-1.108.892-2 2-2z"/><path style="fill:#e4e4e4" d="M11.658 9.003a3.358 2.794 0 0 0-3.065 1.394L6.02 14.103l-2.572 3.706A3.358 2.794 0 0 0 6.358 22h10.284a3.358 2.794 0 0 0 2.909-4.19l-2.572-3.707-2.57-3.706a3.358 2.794 0 0 0-2.75-1.394z"/><path style="fill:#578aff" d="M12 5a1 1 0 0 0-1 1 1 1 0 0 0 1 1 1 1 0 0 0 1-1 1 1 0 0 0-1-1zM10 8a1 1 0 0 0-1 1 1 1 0 0 0 1 1 1 1 0 0 0 1-1 1 1 0 0 0-1-1zM13 10a1 1 0 0 0-1 1 1 1 0 0 0 1 1 1 1 0 0 0 1-1 1 1 0 0 0-1-1zM11 13a1 1 0 0 0-1 1 1 1 0 0 0 1 1 1 1 0 0 0 1-1 1 1 0 0 0-1-1zM7.328 16l-1.037 1.42A2.173 1.72 0 0 0 8.173 20h6.654a2.173 1.72 0 0 0 1.882-2.58L15.672 16H7.328z"/><path style="opacity:.2;fill:#fff" d="M10 2c-1.108 0-2 .892-2 2v.5c0-1.108.892-2 2-2h3c1.108 0 2 .892 2 2V4c0-1.108-.892-2-2-2h-3zm-2 9.25-1.979 2.854-2.572 3.705a3.358 2.794 0 0 0-.433 1.654 3.358 2.794 0 0 1 .433-1.154l2.572-3.705L8 11.75v-.5zm7 0v.5l1.979 2.854 2.572 3.705a3.358 2.794 0 0 1 .433 1.152 3.358 2.794 0 0 0-.433-1.652l-2.572-3.705L15 11.25z"/></svg>
